symbols/web/digital_out_of_home/materialsymbolsoutlined/digital_out_of_home_20px.svg

<svg xmlns="http://www.w3.org/2000/svg" height="20" width="20"><path d="M0 19.167V2.583q0-.729.51-1.239.511-.511 1.24-.511h5.667q.729 0 1.239.511.511.51.511 1.239v16.584h-1.75v-1.625H1.75v1.625Zm1.75-3.375h5.667V2.583H1.75Zm1.542-4.896V7.438l3.041 1.729Zm10.875-5.063q-.688 0-1.177-.479-.49-.479-.49-1.166 0-.688.49-1.188.489-.5 1.177-.5.687 0 1.177.5.489.5.489 1.188 0 .687-.489 1.166-.49.479-1.177.479Zm-1.688 13.334V14l2.146-2.042-.417-2.146q-.791.938-1.906 1.417-1.114.479-2.302.479v-1.75q1.188 0 2.021-.479t1.375-1.354l.625-1q.375-.604.937-.812.563-.209 1.23.083L20 8v3.708h-1.75V9.125l-1.104-.542 2.042 10.584h-1.813l-1.25-5.771-1.896 1.875v3.896Z"/></svg>

<svg xmlns="http://www.w3.org/2000/svg" height="20" width="20"><path d="M0 19.167V2.583Q0 1.854 0.51 1.344Q1.021 0.833 1.75 0.833H7.417Q8.146 0.833 8.656 1.344Q9.167 1.854 9.167 2.583V19.167H7.417V17.542H1.75V19.167ZM1.75 15.792H7.417V2.583Q7.417 2.583 7.417 2.583Q7.417 2.583 7.417 2.583H1.75Q1.75 2.583 1.75 2.583Q1.75 2.583 1.75 2.583ZM3.292 10.896V7.438L6.333 9.167ZM14.167 5.833Q13.479 5.833 12.99 5.354Q12.5 4.875 12.5 4.188Q12.5 3.5 12.99 3Q13.479 2.5 14.167 2.5Q14.854 2.5 15.344 3Q15.833 3.5 15.833 4.188Q15.833 4.875 15.344 5.354Q14.854 5.833 14.167 5.833ZM12.479 19.167V14L14.625 11.958L14.208 9.812Q13.417 10.75 12.302 11.229Q11.188 11.708 10 11.708V9.958Q11.188 9.958 12.021 9.479Q12.854 9 13.396 8.125L14.021 7.125Q14.396 6.521 14.958 6.313Q15.521 6.104 16.188 6.396L20 8V11.708H18.25V9.125L17.146 8.583L19.188 19.167H17.375L16.125 13.396L14.229 15.271V19.167Z"/></svg>
